!!!OTL: Da unser Herr Jesus am Tischlein sa&szlig; (Band 1), S. 26
!!!id: P0781
**kern
*clefG2
*k[f#]
*D:
{8d
8f#
=1
4a
4dd
4a
=2
4f#
4d
4b
=3
4.a
8g
4a
=4
4e}
4r
=5
{4g
=6
4f#
4g
8f#
8e
=7
8.d
16d
4e
4f#
=8
4a
4f#
4e
=9
2d}
==
*-
!!!minrhy: 16
!!!meters: 3/4 ]  ZZ[2
!!!cut: Da unser Herr Jesus am Tischlein sa&szlig; (Band 1), S. 26
!!!reg: Lothringen
!!!trd: PINCK, Louis: Verklingende Weisen, Bd 1, Metz 1928
!!!rhy1: X_X_  X__X__X__  X__X__X__  X__.X_X__  X__0__
!!!rhy2: X__  X__X__X_X_  X_.XX__X__  X__X__X__  X___ // 
!!!key: P0781  16  D 3/4 ]  ZZ[2
!!!mod: SECHSTONSKALA DUR ?]  AMBITUS[8
!!!kad: 21
!!!akz: 5352_3151_
!!!fot: 'a__b__
!!!for: 'a__b__
!!!fok: '^a_Sd_
!! PHRAS[AUFTAKTIG]
!!!fkt: geistliche, religiöse Lieder
!! LOTH VKL
!! PR[21] 2K[11] 2G[21] 3K[0] 3G[0] 4A[5] 4Ü[0] 5A[0] 6K[0] 6G[0]
!! 7K[0] 7G[0] 8A[0] MEHR[0] SI[37] ABS[38] SR[32] SP[5]
!! ST[8] 2k[11] 2g[26] 3k[3] 3g[0] 4d[0] 4ü[0] 5d[3] 6k[0] 6g[0]
!! 7k[0] 7g[0] 8d[0] mehr[0] si[42] dm[-5] sr[37] sp[5]
!! 1F[36] 2F[64] 3F[0] 4F[0] LF[0] 2P[0] 3P[0] 4P[0] TRI[0] DF[2] AB[39]
!! TF[0] U3K[0] U3[0] U4[0] U4Ü[0] U5[0] U6K[0] U6[0] U7K[0] U7[0]
!! N1[10] N2K[0] N2[18] N3K[0] N3[21] N4[21] N4Ü[0] N5[18] N6K[0] N6[8]
!!!n7k: 0] N7[3] O1[3] O2K[0] O2[0] O3K[0] O3[0] HÖ[0
!!!RNB: symbol: &szlig; = sz ligature (UTF-8: ÃŸ)
